images/mini-football_theme_light.svg

<svg width="50" height="50" viewBox="0 0 50 50" fill="none" xmlns="http://www.w3.org/2000/svg">
<path d="M10.7822 4.43843C11.02 4.32663 11.3897 4.18573 11.6038 4.12535C11.9035 4.04074 13.8153 4.01372 19.9273 4.00773L27.8616 4V8.99494C27.8616 13.7243 27.8534 13.9899 27.7079 13.9899C27.6233 13.9899 27.2637 14.1297 26.9088 14.3005C26.554 14.4713 26.0881 14.7503 25.8736 14.9206C25.659 15.0908 25.3373 15.3907 25.1585 15.5872C24.9798 15.7837 24.7004 16.1598 24.5379 16.4231C24.3753 16.6863 24.1356 17.214 24.0051 17.5958C23.8044 18.1832 23.7674 18.4367 23.7641 19.2454C23.7615 19.9274 23.8051 20.3502 23.917 20.7222C24.0032 21.0089 24.1851 21.4693 24.3213 21.7452C24.4576 22.0213 24.7359 22.4625 24.9398 22.7257C25.1437 22.9889 25.5342 23.3812 25.8074 23.5975C26.0807 23.8138 26.5938 24.1251 26.9476 24.2893C27.3014 24.4535 27.6518 24.5878 27.7262 24.5878C27.8475 24.5878 27.8616 25.1078 27.8616 29.5828V34.5777L22.6057 34.577C22.2992 30.4997 20.0495 26.9726 16.7925 24.944V13.5055L16.5979 13.1179C16.4557 12.8347 16.2994 12.6776 16.0174 12.5348C15.6359 12.3415 15.5919 12.3394 12.0611 12.3394H8.49056L8.4916 9.97221C8.49238 8.22468 8.5242 7.48577 8.61336 7.1495C8.67978 6.89898 8.82255 6.50807 8.93074 6.28082C9.03892 6.05357 9.40247 5.59178 9.73861 5.25464C10.087 4.90526 10.5358 4.55431 10.7822 4.43843Z" fill="#0086FF"/>
<path d="M30.7771 13.9899C30.639 13.9899 30.6289 13.6527 30.6289 8.99494V4L38.52 4.00104C44.9966 4.00191 46.4925 4.0238 46.8647 4.12335C47.1141 4.19007 47.5032 4.33349 47.7294 4.44216C47.9557 4.55083 48.4154 4.91603 48.751 5.25369C49.0999 5.60481 49.4477 6.05366 49.563 6.30202C49.6741 6.5409 49.8174 6.93181 49.8814 7.1707C49.9656 7.48438 49.9983 8.26281 49.999 9.97221L50 12.3394H46.4295C42.8987 12.3394 42.8547 12.3415 42.4731 12.5348C42.1912 12.6776 42.0349 12.8347 41.8927 13.1179L41.6981 13.5055V25.0722L41.8927 25.4598C42.0349 25.743 42.1912 25.9001 42.4731 26.0429C42.8547 26.2362 42.8987 26.2383 46.4295 26.2383H50L49.999 28.6055C49.9983 30.3149 49.9656 31.0933 49.8814 31.407C49.8174 31.6459 49.6741 32.0368 49.563 32.2757C49.4477 32.5241 49.0999 32.9729 48.751 33.324C48.4154 33.6617 47.9557 34.0269 47.7294 34.1356C47.5032 34.2442 47.1141 34.3876 46.8647 34.4544C46.4925 34.5539 44.9966 34.5758 38.52 34.5767L30.6289 34.5777V24.6154L30.9965 24.5071C31.1986 24.4476 31.6169 24.2593 31.9261 24.0887C32.247 23.9116 32.7528 23.5101 33.105 23.1529C33.5599 22.6914 33.8157 22.3359 34.0794 21.7984C34.2761 21.3976 34.4941 20.796 34.5638 20.4616C34.6334 20.1271 34.6904 19.5994 34.6904 19.2889C34.6904 18.9783 34.6334 18.4506 34.5638 18.1161C34.4941 17.7817 34.2747 17.1771 34.0761 16.7726C33.7995 16.2088 33.5619 15.8836 33.0584 15.3796C32.5575 14.8779 32.2267 14.6352 31.6635 14.3559C31.2574 14.1546 30.8585 13.9899 30.7771 13.9899Z" fill="#0086FF"/>
<path d="M6.58943 25.9718C6.58943 25.8304 7.21971 25.5671 7.98968 25.3869C8.75966 25.2063 9.83471 25.0433 10.3783 25.024C10.922 25.0047 11.9318 25.1529 12.6224 25.3534C13.6447 25.6505 13.8592 25.8584 13.7755 26.4718C13.6908 27.0939 13.2536 27.3397 11.2699 27.8815L8.86672 28.5373L7.72808 27.3828C7.10175 26.7479 6.58943 26.1127 6.58943 25.9718Z" fill="#0086FF"/>
<path d="M18.231 35.5586C18.6049 34.1979 19.0668 32.9703 19.2573 32.831C19.4477 32.6918 19.7729 32.5756 19.9801 32.5725C20.1874 32.5698 20.4467 32.8128 20.5567 33.1126C20.6667 33.4125 20.7557 34.6143 20.7547 35.7837C20.7537 36.9527 20.5936 38.5102 20.3986 39.2447L20.0444 40.5795L17.5513 38.0332L18.231 35.5586Z" fill="#0086FF"/>
<path d="M0.219423 38.4534C0.0988365 37.8226 0 36.919 0 36.4457C0 35.7196 0.0774258 35.652 0.494207 36.0139C0.766021 36.25 0.977869 36.8504 0.965349 37.3484C0.952499 37.8468 0.82895 38.5571 0.690243 38.9273C0.477075 39.4973 0.404915 39.4246 0.219423 38.4534Z" fill="#0086FF"/>
<path d="M2.47104 37.2529L3.95366 36.8397C4.7691 36.6122 5.73774 36.4109 6.10642 36.3923C6.50772 36.372 7.47768 37.1013 8.52408 38.2097L10.2716 40.0605L9.71083 42.1511C9.40245 43.3012 8.93196 44.3297 8.66542 44.4365C8.39888 44.5437 7.41509 44.7216 6.47906 44.8322C4.78722 45.0321 4.76844 45.0238 3.23673 43.3671L1.69612 41.7007L2.47104 37.2529Z" fill="#0086FF"/>
<path d="M7.90731 46.3473C7.90731 46.1874 8.24073 46.0023 8.64862 45.9361C9.0565 45.8696 9.7283 46.0347 10.1415 46.3032C10.5549 46.572 10.8244 46.8636 10.7404 46.9515C10.6561 47.0393 9.98429 47.0045 9.24726 46.8743C8.51024 46.744 7.90731 46.5069 7.90731 46.3473Z" fill="#0086FF"/>
<path d="M11.202 29.4265L9.06046 30.0104L7.7607 35.3356L11.1915 38.9245L16.2723 37.5648L17.5704 32.5315L15.7978 30.6539C14.8226 29.6213 13.8717 28.7913 13.6843 28.8096C13.4968 28.8279 12.3799 29.1057 11.202 29.4265Z" fill="#0086FF"/>
<path d="M3.74477 27.5675C3.17676 28.0359 2.25194 29.1694 1.6892 30.0866C1.12647 31.004 0.588107 32.2086 0.49289 32.7642C0.36176 33.5293 0.528803 34.018 1.18313 34.7828L2.04635 35.7923L4.07062 35.3594C5.18424 35.1216 6.18582 34.8224 6.29619 34.6949C6.4069 34.5674 6.76932 33.3373 7.10175 31.9615L7.70634 29.46L6.42206 28.0841C5.71567 27.3273 5.05673 26.71 4.95755 26.7121C4.85838 26.7141 4.31278 27.0991 3.74477 27.5675Z" fill="#0069B7"/>
<path d="M13.8378 39.7686C11.8715 40.3066 11.6659 40.452 11.3243 41.5445C11.12 42.199 10.8548 43.2096 10.7352 43.7903C10.5424 44.7257 10.6548 44.948 11.7199 45.7407C12.7713 46.5234 13.0523 46.5892 13.9567 46.2653C14.5254 46.0616 15.3616 45.6594 15.8146 45.3719C16.2676 45.0845 17.0587 44.451 17.5727 43.9643C18.0867 43.4777 18.6566 42.7908 18.8395 42.4379C19.1103 41.9151 18.9406 41.549 17.9206 40.4561C17.2323 39.7189 16.5141 39.1309 16.3243 39.1492C16.1345 39.1675 15.0157 39.4463 13.8378 39.7686Z" fill="#0069B7"/>
<path d="M15.1557 27.3231C15.1557 27.6612 15.9444 28.7528 16.9085 29.7488C18.1354 31.0164 18.8266 31.4931 19.2128 31.338C19.7264 31.1319 19.7248 31.045 19.1901 30.0866C18.8738 29.5199 18.0587 28.5284 17.3786 27.8825C16.6986 27.2366 15.9204 26.7083 15.6489 26.7083C15.3777 26.7083 15.1557 26.985 15.1557 27.3231Z" fill="#0069B7"/>
<path d="M13.2696 23.4585H14.0252V15.1192H8.49056V23.2572C9.1056 23.161 9.73571 23.1111 10.3773 23.1111C11.3736 23.1111 12.3422 23.2314 13.2696 23.4585Z" fill="#0069B7"/>
<path d="M28.3955 16.6328C28.1897 16.7002 27.8639 16.8649 27.6714 16.9989C27.4789 17.1329 27.1892 17.4165 27.0275 17.6292C26.8658 17.8419 26.6713 18.2311 26.5952 18.4941C26.5045 18.8073 26.4715 19.1561 26.4993 19.5051C26.5228 19.7981 26.6217 20.219 26.7193 20.4406C26.8167 20.662 27.0768 21.0243 27.2973 21.2457C27.5176 21.4671 27.8807 21.7326 28.1041 21.8358C28.4192 21.9814 28.675 22.0235 29.2453 22.0235C29.8155 22.0235 30.0714 21.9814 30.3864 21.8358C30.6098 21.7326 30.9729 21.4671 31.1933 21.2457C31.4137 21.0243 31.6781 20.6596 31.7808 20.4352C31.9258 20.1187 31.9676 19.8617 31.9676 19.2889C31.9676 18.716 31.9258 18.459 31.7808 18.1425C31.6781 17.9182 31.4137 17.5534 31.1933 17.3321C30.9729 17.1106 30.6098 16.8481 30.3864 16.7486C30.1383 16.6382 29.7449 16.5566 29.375 16.539C29.0108 16.5217 28.6206 16.5591 28.3955 16.6328Z" fill="#0069B7"/>
<path fill-rule="evenodd" clip-rule="evenodd" d="M50 12.3394L49.999 9.97221C49.9983 8.26281 49.9656 7.48438 49.8814 7.1707C49.8174 6.93181 49.6741 6.5409 49.563 6.30202C49.4477 6.05366 49.0999 5.60481 48.751 5.25369C48.4154 4.91603 47.9557 4.55083 47.7294 4.44216C47.5032 4.33349 47.1141 4.19007 46.8647 4.12335C46.4925 4.0238 44.9966 4.00191 38.52 4.00104L30.6289 4V8.99494C30.6289 13.6527 30.639 13.9899 30.7771 13.9899C30.8585 13.9899 31.2574 14.1546 31.6635 14.3559C32.2267 14.6352 32.5575 14.8779 33.0584 15.3796C33.5619 15.8836 33.7995 16.2088 34.0761 16.7726C34.2747 17.1771 34.4941 17.7817 34.5638 18.1161C34.6334 18.4506 34.6904 18.9783 34.6904 19.2889C34.6904 19.5994 34.6334 20.1271 34.5638 20.4616C34.4941 20.796 34.2761 21.3976 34.0794 21.7984C33.8157 22.3359 33.5599 22.6914 33.105 23.1529C32.7528 23.5101 32.247 23.9116 31.9261 24.0887C31.6169 24.2593 31.1986 24.4476 30.9965 24.5071L30.6289 24.6154V34.5777L38.52 34.5767C44.9966 34.5758 46.4925 34.5539 46.8647 34.4544C47.1141 34.3876 47.5032 34.2442 47.7294 34.1356C47.9557 34.0269 48.4154 33.6617 48.751 33.324C49.0999 32.9729 49.4477 32.5241 49.563 32.2757C49.6741 32.0368 49.8174 31.6459 49.8814 31.407C49.9656 31.0933 49.9983 30.3149 49.999 28.6055L50 26.2383H46.4295C42.8987 26.2383 42.8547 26.2362 42.4731 26.0429C42.1912 25.9001 42.0349 25.743 41.8927 25.4598L41.6981 25.0722V13.5055L41.8927 13.1179C42.0349 12.8347 42.1912 12.6776 42.4731 12.5348C42.8547 12.3415 42.8987 12.3394 46.4295 12.3394H50ZM0.494207 36.0139C0.0774258 35.652 0 35.7196 0 36.4457C0 36.919 0.0988365 37.8226 0.219423 38.4534C0.404915 39.4246 0.477075 39.4973 0.690243 38.9273C0.82895 38.5571 0.952499 37.8468 0.965349 37.3484C0.977869 36.8504 0.766021 36.25 0.494207 36.0139ZM11.6038 4.12535C11.3897 4.18573 11.02 4.32663 10.7822 4.43843C10.5358 4.55431 10.087 4.90526 9.73861 5.25464C9.40247 5.59178 9.03892 6.05357 8.93074 6.28082C8.82255 6.50807 8.67978 6.89898 8.61336 7.1495C8.5242 7.48577 8.49238 8.22468 8.4916 9.97221L8.49056 12.3394H12.0611C15.5919 12.3394 15.6359 12.3415 16.0174 12.5348C16.2994 12.6776 16.4557 12.8347 16.5979 13.1179L16.7925 13.5055V24.944C20.0495 26.9726 22.2992 30.4997 22.6057 34.577L27.8616 34.5777V29.5828C27.8616 25.1078 27.8475 24.5878 27.7262 24.5878C27.6518 24.5878 27.3014 24.4535 26.9476 24.2893C26.5938 24.1251 26.0807 23.8138 25.8074 23.5975C25.5342 23.3812 25.1437 22.9889 24.9398 22.7257C24.7359 22.4625 24.4576 22.0213 24.3213 21.7452C24.1851 21.4693 24.0032 21.0089 23.917 20.7222C23.8051 20.3502 23.7615 19.9274 23.7641 19.2454C23.7674 18.4367 23.8044 18.1832 24.0051 17.5958C24.1356 17.214 24.3753 16.6863 24.5379 16.4231C24.7004 16.1598 24.9798 15.7837 25.1585 15.5872C25.3373 15.3907 25.659 15.0908 25.8736 14.9206C26.0881 14.7503 26.554 14.4713 26.9088 14.3005C27.2637 14.1297 27.6233 13.9899 27.7079 13.9899C27.8534 13.9899 27.8616 13.7243 27.8616 8.99494V4L19.9273 4.00773C13.8153 4.01372 11.9035 4.04074 11.6038 4.12535ZM7.98968 25.3869C7.21971 25.5671 6.58943 25.8304 6.58943 25.9718C6.58943 26.1127 7.10175 26.7479 7.72808 27.3828L8.86672 28.5373L11.2699 27.8815C13.2536 27.3397 13.6908 27.0939 13.7755 26.4718C13.8592 25.8584 13.6447 25.6505 12.6224 25.3534C11.9318 25.1529 10.922 25.0047 10.3783 25.024C9.83471 25.0433 8.75966 25.2063 7.98968 25.3869ZM19.2573 32.831C19.0668 32.9703 18.6049 34.1979 18.231 35.5586L17.5513 38.0332L20.0444 40.5795L20.3986 39.2447C20.5936 38.5102 20.7537 36.9527 20.7547 35.7837C20.7557 34.6143 20.6667 33.4125 20.5567 33.1126C20.4467 32.8128 20.1874 32.5698 19.9801 32.5725C19.7729 32.5756 19.4477 32.6918 19.2573 32.831ZM3.95366 36.8397L2.47104 37.2529L1.69612 41.7007L3.23673 43.3671C4.76844 45.0238 4.78722 45.0321 6.47906 44.8322C7.41509 44.7216 8.39888 44.5437 8.66542 44.4365C8.93196 44.3297 9.40245 43.3012 9.71083 42.1511L10.2716 40.0605L8.52408 38.2097C7.47768 37.1013 6.50772 36.372 6.10642 36.3923C5.73774 36.4109 4.7691 36.6122 3.95366 36.8397ZM8.64862 45.9361C8.24073 46.0023 7.90731 46.1874 7.90731 46.3473C7.90731 46.5069 8.51024 46.744 9.24726 46.8743C9.98429 47.0045 10.6561 47.0393 10.7404 46.9515C10.8244 46.8636 10.5549 46.572 10.1415 46.3032C9.7283 46.0347 9.0565 45.8696 8.64862 45.9361Z" fill="#0086FF"/>
<path d="M50 23.4585V15.1192H44.4654V23.4585H50Z" fill="#0069B7"/>
</svg>

<svg width="50" height="50" fill="none" xmlns="http://www.w3.org/2000/svg"><path d="M10.782 4.438c.238-.111.608-.252.822-.313.3-.084 2.211-.111 8.323-.117L27.862 4v4.995c0 4.73-.009 4.995-.154 4.995-.085 0-.444.14-.8.31-.354.171-.82.45-1.034.62-.215.17-.537.47-.715.667a6.842 6.842 0 0 0-.621.836 7.054 7.054 0 0 0-.533 1.173c-.2.587-.238.84-.24 1.65-.003.681.04 1.104.152 1.476a8 8 0 0 0 .404 1.023c.137.276.415.717.619.98.204.264.594.656.867.872.274.217.787.528 1.14.692.354.164.705.299.78.299.12 0 .135.52.135 4.995v4.995l-5.256-.001a12.44 12.44 0 0 0-5.814-9.633V13.506l-.194-.388a1.176 1.176 0 0 0-.58-.583c-.382-.194-.426-.196-3.957-.196h-3.57V9.972c.001-1.747.033-2.486.122-2.822.067-.251.21-.642.318-.87.108-.226.471-.688.808-1.025.348-.35.797-.7 1.043-.817Zm19.995 9.552c-.138 0-.148-.337-.148-4.995V4l7.891.001c6.477 0 7.972.023 8.345.122.25.067.638.21.864.32.227.108.686.473 1.022.81.349.352.697.8.812 1.049.111.239.254.63.318.869.085.313.117 1.092.118 2.801L50 12.34h-3.57c-3.531 0-3.575.002-3.957.196-.282.143-.438.3-.58.583l-.195.387v11.567l.195.388c.142.283.298.44.58.583.382.193.426.195 3.956.195H50l-.001 2.367c0 1.71-.033 2.488-.118 2.802a6.46 6.46 0 0 1-.318.869c-.115.248-.463.697-.812 1.048-.336.338-.795.703-1.022.812a6.001 6.001 0 0 1-.864.318c-.373.1-1.868.122-8.345.123h-7.891v-9.962l.367-.108c.203-.06.62-.248.93-.418.321-.177.827-.579 1.179-.936.455-.462.71-.817.974-1.355.197-.4.415-1.002.485-1.336a6.97 6.97 0 0 0 .126-1.173c0-.31-.057-.838-.126-1.173-.07-.334-.29-.939-.488-1.343-.276-.564-.514-.89-1.018-1.393-.5-.502-.831-.745-1.395-1.024-.406-.201-.805-.366-.886-.366ZM6.59 25.972c0-.142.63-.405 1.4-.585.77-.18 1.845-.344 2.388-.363.544-.02 1.554.129 2.244.33 1.023.297 1.237.504 1.153 1.118-.084.622-.521.868-2.505 1.41l-2.403.655-1.139-1.154c-.626-.635-1.139-1.27-1.139-1.411Zm11.641 9.587c.374-1.361.836-2.589 1.026-2.728.19-.14.516-.255.723-.259.207-.002.467.24.577.54.11.3.199 1.502.198 2.672-.001 1.169-.161 2.726-.356 3.46l-.355 1.336-2.493-2.547.68-2.474ZM.22 38.453C.098 37.823 0 36.92 0 36.446c0-.726.077-.794.494-.432.272.236.484.836.471 1.334-.013.499-.136 1.21-.275 1.58-.213.57-.285.497-.47-.475Zm2.251-1.2 1.483-.413c.815-.228 1.784-.43 2.152-.448.402-.02 1.372.71 2.418 1.818l1.748 1.85-.561 2.091c-.309 1.15-.779 2.179-1.046 2.285-.266.108-1.25.286-2.186.396-1.692.2-1.71.192-3.242-1.465l-1.54-1.666.774-4.448Zm5.436 9.094c0-.16.334-.345.742-.41.408-.067 1.08.098 1.493.366.413.269.682.56.598.649-.084.087-.756.053-1.493-.078-.737-.13-1.34-.367-1.34-.527Zm3.295-16.92-2.142.583-1.3 5.326 3.431 3.589 5.081-1.36 1.298-5.033-1.772-1.878c-.975-1.033-1.926-1.863-2.114-1.844-.187.018-1.304.296-2.482.617Z" fill="#0086FF"/><path d="M3.745 27.567c-.568.469-1.493 1.602-2.056 2.52-.563.917-1.1 2.122-1.196 2.677-.131.765.036 1.254.69 2.019l.863 1.01 2.025-.434c1.113-.237 2.115-.537 2.225-.664.11-.128.473-1.358.806-2.733l.604-2.502-1.284-1.376c-.706-.757-1.365-1.374-1.464-1.372-.1.002-.645.387-1.213.855Zm10.093 12.202c-1.966.538-2.172.683-2.514 1.776-.204.654-.47 1.665-.589 2.245-.193.936-.08 1.158.985 1.95 1.051.783 1.332.85 2.237.525a11.29 11.29 0 0 0 1.858-.893c.453-.288 1.244-.921 1.758-1.408.514-.486 1.084-1.173 1.267-1.526.27-.523.1-.889-.92-1.982-.688-.737-1.406-1.325-1.596-1.307-.19.018-1.308.297-2.486.62Zm1.318-12.446c0 .338.788 1.43 1.752 2.426 1.227 1.267 1.919 1.744 2.305 1.589.513-.206.512-.293-.023-1.251-.316-.567-1.131-1.559-1.811-2.204-.68-.646-1.459-1.175-1.73-1.175-.271 0-.493.277-.493.615Zm-1.886-3.864h.755v-8.34H8.491v8.138a12.203 12.203 0 0 1 4.779.201Zm15.125-6.826a3.365 3.365 0 0 0-.724.366 3.491 3.491 0 0 0-.643.63 3.165 3.165 0 0 0-.433.865 2.89 2.89 0 0 0-.096 1.011c.024.293.123.714.22.936.098.221.358.583.578.805.22.221.584.487.807.59.315.145.571.188 1.141.188.57 0 .826-.043 1.141-.188.224-.103.587-.369.807-.59.22-.222.485-.586.588-.81.145-.317.187-.574.187-1.147 0-.573-.042-.83-.187-1.147-.103-.224-.367-.589-.588-.81-.22-.221-.583-.484-.807-.583-.248-.11-.641-.192-1.011-.21-.364-.017-.754.02-.98.094Z" fill="#0069B7"/><path fill-rule="evenodd" clip-rule="evenodd" d="m50 12.34-.001-2.368c0-1.71-.033-2.488-.118-2.801a6.459 6.459 0 0 0-.318-.869c-.115-.248-.463-.697-.812-1.048-.336-.338-.795-.703-1.022-.812a5.983 5.983 0 0 0-.864-.319c-.373-.1-1.868-.121-8.345-.122L30.629 4v4.995c0 4.658.01 4.995.148 4.995.081 0 .48.165.886.366.564.28.894.522 1.395 1.024.504.504.742.829 1.018 1.393.199.404.418 1.009.488 1.343.07.335.126.862.126 1.173 0 .31-.057.838-.126 1.173-.07.334-.288.936-.485 1.336-.263.538-.52.893-.974 1.355-.352.357-.858.759-1.179.936-.31.17-.727.359-.93.418l-.367.108v9.963l7.891-.001c6.477-.001 7.972-.023 8.345-.123.25-.066.638-.21.864-.318.227-.11.686-.474 1.022-.812.349-.351.697-.8.812-1.048a6.46 6.46 0 0 0 .318-.869c.085-.314.117-1.092.118-2.802L50 26.238h-3.57c-3.531 0-3.575-.002-3.957-.195a1.176 1.176 0 0 1-.58-.583l-.195-.388V13.506l.195-.388c.142-.283.298-.44.58-.583.382-.194.426-.196 3.956-.196H50ZM.494 36.013C.077 35.652 0 35.72 0 36.446c0 .473.099 1.377.22 2.007.185.972.257 1.044.47.474.139-.37.262-1.08.275-1.579.013-.498-.199-1.098-.47-1.334Zm11.11-31.889c-.214.06-.584.202-.822.313-.246.116-.695.467-1.043.817-.337.337-.7.799-.808 1.026a6.047 6.047 0 0 0-.318.869c-.089.336-.12 1.075-.121 2.822L8.49 12.34h3.57c3.53 0 3.575.002 3.956.196.282.143.439.3.58.583l.195.387v11.439a12.44 12.44 0 0 1 5.814 9.633h5.256v-4.994c0-4.475-.014-4.995-.136-4.995-.074 0-.425-.135-.778-.299a6.882 6.882 0 0 1-1.14-.692 6.15 6.15 0 0 1-.868-.871 7.003 7.003 0 0 1-.619-.98 8 8 0 0 1-.404-1.024c-.112-.372-.155-.795-.153-1.477.003-.808.04-1.062.241-1.65.13-.381.37-.909.533-1.172.162-.263.442-.64.62-.836.18-.196.501-.496.716-.666.214-.17.68-.45 1.035-.62.355-.171.714-.311.799-.311.145 0 .154-.266.154-4.995V4l-7.935.008c-6.112.006-8.024.033-8.323.117ZM7.99 25.387c-.77.18-1.4.443-1.4.585 0 .14.512.776 1.138 1.41l1.139 1.155 2.403-.655c1.984-.542 2.42-.788 2.505-1.41.084-.614-.13-.822-1.153-1.119-.69-.2-1.7-.348-2.244-.329-.543.02-1.618.182-2.388.363Zm11.267 7.444c-.19.14-.652 1.367-1.026 2.728l-.68 2.474 2.493 2.547.355-1.335c.195-.735.355-2.292.356-3.461 0-1.17-.088-2.371-.198-2.671-.11-.3-.37-.543-.577-.54-.207.003-.532.119-.723.258ZM3.954 36.84l-1.483.413-.775 4.448 1.54 1.666c1.532 1.657 1.551 1.665 3.243 1.465.936-.11 1.92-.288 2.186-.395.267-.107.737-1.136 1.046-2.286l.56-2.09-1.747-1.851c-1.046-1.109-2.016-1.838-2.418-1.818-.368.019-1.337.22-2.152.448Zm4.695 9.096c-.408.066-.742.251-.742.411 0 .16.603.397 1.34.527.737.13 1.41.165 1.493.078.084-.088-.185-.38-.598-.649-.414-.268-1.085-.433-1.493-.367Z" fill="#0086FF"/><path d="M50 23.459v-8.34h-5.535v8.34H50Z" fill="#0069B7"/></svg>
